en/_assets/tracker/svg/end.svg

<svg width="96" height="20" viewBox="0 0 96 20" fill="none" xmlns="http://www.w3.org/2000/svg">
<g clip-path="url(#clip0_3479_35434)">
<path fill-rule="evenodd" clip-rule="evenodd" d="M16.125 10C16.125 12.2782 14.2782 14.125 12 14.125C9.72182 14.125 7.875 12.2782 7.875 10C7.875 7.72182 9.72182 5.875 12 5.875C14.2782 5.875 16.125 7.72182 16.125 10ZM17.25 10C17.25 12.8995 14.8995 15.25 12 15.25C9.1005 15.25 6.75 12.8995 6.75 10C6.75 7.1005 9.1005 4.75 12 4.75C14.8995 4.75 17.25 7.1005 17.25 10ZM14.325 8.8375C14.5114 8.58897 14.461 8.2364 14.2125 8.05C13.964 7.8636 13.6114 7.91397 13.425 8.1625L11.5641 10.6436L10.5227 9.60225C10.3031 9.38258 9.94692 9.38258 9.72725 9.60225C9.50758 9.82192 9.50758 10.1781 9.72725 10.3977L11.2273 11.8977C11.3426 12.013 11.5022 12.0726 11.6649 12.0611C11.8275 12.0495 11.9772 11.9679 12.075 11.8375L14.325 8.8375Z" fill="#3AB935"/>
</g>
<path d="M28.135 14.13C27.4417 14.13 26.8133 14.0217 26.25 13.805C25.6867 13.5883 25.2013 13.2763 24.794 12.869C24.3953 12.453 24.0877 11.9503 23.871 11.361C23.6543 10.763 23.546 10.0913 23.546 9.346C23.546 8.592 23.6457 7.92033 23.845 7.331C24.0443 6.74167 24.339 6.24333 24.729 5.836C25.119 5.42 25.5957 5.10367 26.159 4.887C26.731 4.67033 27.381 4.562 28.109 4.562C28.7417 4.562 29.2963 4.63133 29.773 4.77C30.2497 4.9 30.6397 5.056 30.943 5.238V6.408C30.553 6.15667 30.1023 5.97033 29.591 5.849C29.0883 5.72767 28.59 5.667 28.096 5.667C26.9953 5.667 26.1807 5.97467 25.652 6.59C25.132 7.19667 24.872 8.11533 24.872 9.346C24.872 10.5853 25.1537 11.5083 25.717 12.115C26.289 12.7217 27.1297 13.025 28.239 13.025C28.7157 13.025 29.1793 12.96 29.63 12.83C30.0893 12.7 30.527 12.479 30.943 12.167V13.337C30.6917 13.5363 30.3233 13.7183 29.838 13.883C29.3613 14.0477 28.7937 14.13 28.135 14.13ZM35.3632 14.13C34.9039 14.13 34.4749 14.052 34.0762 13.896C33.6775 13.74 33.3309 13.5147 33.0362 13.22C32.7502 12.9167 32.5249 12.5483 32.3602 12.115C32.1955 11.6817 32.1132 11.1833 32.1132 10.62C32.1132 10.0653 32.1955 9.57133 32.3602 9.138C32.5249 8.696 32.7502 8.32767 33.0362 8.033C33.3309 7.73833 33.6775 7.513 34.0762 7.357C34.4749 7.201 34.9039 7.123 35.3632 7.123C35.8312 7.123 36.2645 7.201 36.6632 7.357C37.0619 7.513 37.4042 7.73833 37.6902 8.033C37.9849 8.32767 38.2145 8.696 38.3792 9.138C38.5525 9.57133 38.6392 10.0653 38.6392 10.62C38.6392 11.1833 38.5525 11.6817 38.3792 12.115C38.2145 12.5483 37.9849 12.9167 37.6902 13.22C37.4042 13.5147 37.0619 13.74 36.6632 13.896C36.2645 14.052 35.8312 14.13 35.3632 14.13ZM35.3632 13.103C35.6665 13.103 35.9439 13.0553 36.1952 12.96C36.4552 12.856 36.6805 12.7043 36.8712 12.505C37.0619 12.297 37.2092 12.037 37.3132 11.725C37.4172 11.413 37.4692 11.0447 37.4692 10.62C37.4692 10.1953 37.4172 9.827 37.3132 9.515C37.2092 9.203 37.0619 8.94733 36.8712 8.748C36.6805 8.54 36.4552 8.38833 36.1952 8.293C35.9439 8.189 35.6665 8.137 35.3632 8.137C35.0599 8.137 34.7825 8.189 34.5312 8.293C34.2799 8.38833 34.0589 8.54 33.8682 8.748C33.6862 8.94733 33.5432 9.203 33.4392 9.515C33.3352 9.827 33.2832 10.1953 33.2832 10.62C33.2832 11.0447 33.3352 11.413 33.4392 11.725C33.5432 12.037 33.6862 12.297 33.8682 12.505C34.0589 12.7043 34.2799 12.856 34.5312 12.96C34.7825 13.0553 35.0599 13.103 35.3632 13.103ZM41.1777 14H40.0337V7.253H41.0347L41.1517 8.462H41.1777C41.3597 8.08067 41.6327 7.76433 41.9967 7.513C42.3607 7.253 42.8373 7.123 43.4267 7.123C43.9467 7.123 44.3713 7.24867 44.7007 7.5C45.0387 7.74267 45.264 8.111 45.3767 8.605C45.5673 8.14567 45.8577 7.786 46.2477 7.526C46.6463 7.25733 47.1273 7.123 47.6907 7.123C48.3147 7.123 48.8087 7.30067 49.1727 7.656C49.5367 8.00267 49.7187 8.54 49.7187 9.268V14H48.5617V9.411C48.5617 8.969 48.4533 8.64833 48.2367 8.449C48.02 8.241 47.7253 8.137 47.3527 8.137C47.1013 8.137 46.8803 8.176 46.6897 8.254C46.499 8.32333 46.33 8.423 46.1827 8.553C46.0353 8.683 45.901 8.83467 45.7797 9.008C45.6583 9.18133 45.5457 9.36333 45.4417 9.554V14H44.2977V9.281C44.2977 8.84767 44.1893 8.54867 43.9727 8.384C43.756 8.21933 43.4613 8.137 43.0887 8.137C42.846 8.137 42.6293 8.16733 42.4387 8.228C42.248 8.28867 42.0747 8.37533 41.9187 8.488C41.7713 8.60067 41.637 8.73933 41.5157 8.904C41.3943 9.06 41.2817 9.23333 41.1777 9.424V14ZM54.9032 14.13C54.3832 14.13 53.9326 14.0087 53.5512 13.766C53.1786 13.5233 52.8796 13.1897 52.6542 12.765V16.301H51.5102V7.253H52.5112L52.6282 8.566C52.8536 8.124 53.1569 7.773 53.5382 7.513C53.9196 7.253 54.3919 7.123 54.9552 7.123C55.3452 7.123 55.7179 7.19667 56.0732 7.344C56.4372 7.48267 56.7536 7.69933 57.0222 7.994C57.2996 8.28 57.5162 8.644 57.6722 9.086C57.8369 9.51933 57.9192 10.0307 57.9192 10.62C57.9192 11.218 57.8369 11.738 57.6722 12.18C57.5076 12.6133 57.2866 12.9773 57.0092 13.272C56.7319 13.558 56.4112 13.7747 56.0472 13.922C55.6832 14.0607 55.3019 14.13 54.9032 14.13ZM54.7342 13.103C55.3322 13.103 55.8132 12.8993 56.1772 12.492C56.5499 12.076 56.7362 11.452 56.7362 10.62C56.7362 9.80533 56.5499 9.19 56.1772 8.774C55.8132 8.34933 55.3322 8.137 54.7342 8.137C54.4396 8.137 54.1622 8.189 53.9022 8.293C53.6509 8.397 53.4299 8.553 53.2392 8.761C53.0572 8.96033 52.9099 9.216 52.7972 9.528C52.6932 9.84 52.6412 10.204 52.6412 10.62C52.6412 11.036 52.6932 11.4 52.7972 11.712C52.9099 12.024 53.0572 12.284 53.2392 12.492C53.4299 12.7 53.6509 12.856 53.9022 12.96C54.1622 13.0553 54.4396 13.103 54.7342 13.103ZM60.4491 4.679V14H59.3051V4.679H60.4491ZM67.6829 13.428C67.5876 13.4973 67.4706 13.571 67.3319 13.649C67.1933 13.727 67.0243 13.805 66.8249 13.883C66.6256 13.9523 66.4003 14.0087 66.1489 14.052C65.8976 14.104 65.6159 14.13 65.3039 14.13C64.1686 14.13 63.3063 13.8223 62.7169 13.207C62.1276 12.5917 61.8329 11.7293 61.8329 10.62C61.8329 10.074 61.9109 9.58433 62.0669 9.151C62.2316 8.71767 62.4569 8.35367 62.7429 8.059C63.0289 7.75567 63.3669 7.526 63.7569 7.37C64.1469 7.20533 64.5716 7.123 65.0309 7.123C65.5163 7.123 65.9496 7.20533 66.3309 7.37C66.7123 7.53467 67.0243 7.77733 67.2669 8.098C67.5183 8.41867 67.6873 8.81733 67.7739 9.294C67.8693 9.762 67.8693 10.308 67.7739 10.932H63.0159C63.0593 11.66 63.2759 12.206 63.6659 12.57C64.0559 12.9253 64.6366 13.103 65.4079 13.103C65.9279 13.103 66.3743 13.0293 66.7469 12.882C67.1196 12.7347 67.4316 12.5743 67.6829 12.401V13.428ZM65.0049 8.137C64.5109 8.137 64.0863 8.28867 63.7309 8.592C63.3756 8.89533 63.1503 9.35467 63.0549 9.97H66.6819C66.7166 9.346 66.5736 8.88667 66.2529 8.592C65.9323 8.28867 65.5163 8.137 65.0049 8.137ZM72.5095 13.857C72.3708 13.935 72.1932 14 71.9765 14.052C71.7598 14.104 71.5302 14.13 71.2875 14.13C70.9582 14.13 70.6765 14.0823 70.4425 13.987C70.2172 13.8917 70.0308 13.766 69.8835 13.61C69.7362 13.4453 69.6278 13.2633 69.5585 13.064C69.4978 12.856 69.4675 12.6437 69.4675 12.427V8.228H68.6615V7.253H69.4675V5.836H70.6115V7.253H72.5745V8.228H70.6115V12.284C70.6115 12.57 70.6808 12.778 70.8195 12.908C70.9668 13.038 71.2225 13.103 71.5865 13.103C71.9245 13.103 72.2322 13.0077 72.5095 12.817V13.857ZM79.3372 13.428C79.2419 13.4973 79.1249 13.571 78.9862 13.649C78.8476 13.727 78.6786 13.805 78.4792 13.883C78.2799 13.9523 78.0546 14.0087 77.8032 14.052C77.5519 14.104 77.2702 14.13 76.9582 14.13C75.8229 14.13 74.9606 13.8223 74.3712 13.207C73.7819 12.5917 73.4872 11.7293 73.4872 10.62C73.4872 10.074 73.5652 9.58433 73.7212 9.151C73.8859 8.71767 74.1112 8.35367 74.3972 8.059C74.6832 7.75567 75.0212 7.526 75.4112 7.37C75.8012 7.20533 76.2259 7.123 76.6852 7.123C77.1706 7.123 77.6039 7.20533 77.9852 7.37C78.3666 7.53467 78.6786 7.77733 78.9212 8.098C79.1726 8.41867 79.3416 8.81733 79.4282 9.294C79.5236 9.762 79.5236 10.308 79.4282 10.932H74.6702C74.7136 11.66 74.9302 12.206 75.3202 12.57C75.7102 12.9253 76.2909 13.103 77.0622 13.103C77.5822 13.103 78.0286 13.0293 78.4012 12.882C78.7739 12.7347 79.0859 12.5743 79.3372 12.401V13.428ZM76.6592 8.137C76.1652 8.137 75.7406 8.28867 75.3852 8.592C75.0299 8.89533 74.8046 9.35467 74.7092 9.97H78.3362C78.3709 9.346 78.2279 8.88667 77.9072 8.592C77.5866 8.28867 77.1706 8.137 76.6592 8.137ZM85.6978 12.674C85.4898 13.116 85.1994 13.4713 84.8268 13.74C84.4541 14 83.9818 14.13 83.4098 14.13C83.0024 14.13 82.6168 14.0607 82.2528 13.922C81.8888 13.7747 81.5681 13.558 81.2908 13.272C81.0134 12.9773 80.7924 12.6133 80.6278 12.18C80.4631 11.738 80.3808 11.218 80.3808 10.62C80.3808 10.0307 80.4631 9.51933 80.6278 9.086C80.7924 8.644 81.0134 8.28 81.2908 7.994C81.5681 7.69933 81.8888 7.48267 82.2528 7.344C82.6254 7.19667 83.0154 7.123 83.4228 7.123C83.9341 7.123 84.3761 7.23133 84.7488 7.448C85.1214 7.656 85.4204 7.955 85.6458 8.345V4.679H86.7898V14H85.7888L85.6978 12.674ZM83.5788 13.103C83.8734 13.103 84.1464 13.0553 84.3978 12.96C84.6491 12.856 84.8658 12.7 85.0478 12.492C85.2384 12.284 85.3858 12.024 85.4898 11.712C85.6024 11.4 85.6588 11.036 85.6588 10.62C85.6588 10.204 85.6024 9.84 85.4898 9.528C85.3858 9.216 85.2384 8.956 85.0478 8.748C84.8658 8.54 84.6491 8.38833 84.3978 8.293C84.1464 8.189 83.8734 8.137 83.5788 8.137C82.9808 8.137 82.4911 8.34933 82.1098 8.774C81.7371 9.19 81.5508 9.80533 81.5508 10.62C81.5508 11.4433 81.7414 12.063 82.1228 12.479C82.5041 12.895 82.9894 13.103 83.5788 13.103Z" fill="#3AB935"/>
<defs>
<clipPath id="clip0_3479_35434">
<rect width="12" height="12" fill="white" transform="translate(6 4)"/>
</clipPath>
</defs>
</svg>

<svg xmlns="http://www.w3.org/2000/svg" width="96" height="20" fill="none" viewBox="0 0 96 20">
    <g clip-path="url(#clip0_3479_35434)">
        <path fill="#3AB935" fill-rule="evenodd" d="M16.125 10a4.125 4.125 0 1 1-8.25 0 4.125 4.125 0 0 1 8.25 0Zm1.125 0a5.25 5.25 0 1 1-10.5 0 5.25 5.25 0 0 1 10.5 0Zm-2.925-1.162a.563.563 0 0 0-.9-.675l-1.86 2.48-1.042-1.04a.562.562 0 1 0-.796.795l1.5 1.5a.563.563 0 0 0 .848-.06l2.25-3Z" clip-rule="evenodd"/>
    </g>
    <path fill="#3AB935" d="M28.135 14.13c-.693 0-1.322-.108-1.885-.325a4.127 4.127 0 0 1-1.456-.936 4.285 4.285 0 0 1-.923-1.508c-.217-.598-.325-1.27-.325-2.015 0-.754.1-1.426.299-2.015.2-.59.494-1.088.884-1.495.39-.416.867-.732 1.43-.949.572-.217 1.222-.325 1.95-.325.633 0 1.187.07 1.664.208.477.13.867.286 1.17.468v1.17a4.312 4.312 0 0 0-1.352-.559 6.354 6.354 0 0 0-1.495-.182c-1.1 0-1.915.308-2.444.923-.52.607-.78 1.525-.78 2.756 0 1.24.282 2.162.845 2.769.572.607 1.413.91 2.522.91.477 0 .94-.065 1.391-.195.46-.13.897-.351 1.313-.663v1.17c-.251.2-.62.381-1.105.546-.477.165-1.044.247-1.703.247Zm7.228 0a3.5 3.5 0 0 1-1.287-.234 2.997 2.997 0 0 1-1.04-.676 3.295 3.295 0 0 1-.676-1.105c-.164-.433-.247-.932-.247-1.495 0-.555.083-1.049.247-1.482.165-.442.39-.81.676-1.105.295-.295.642-.52 1.04-.676a3.5 3.5 0 0 1 1.287-.234c.468 0 .901.078 1.3.234a2.86 2.86 0 0 1 1.027.676c.295.295.525.663.69 1.105.172.433.26.927.26 1.482 0 .563-.087 1.062-.26 1.495a3.188 3.188 0 0 1-.69 1.105 2.86 2.86 0 0 1-1.027.676 3.537 3.537 0 0 1-1.3.234Zm0-1.027c.303 0 .58-.048.832-.143a1.9 1.9 0 0 0 .676-.455c.19-.208.338-.468.442-.78.104-.312.156-.68.156-1.105 0-.425-.052-.793-.156-1.105a2.009 2.009 0 0 0-.442-.767 1.7 1.7 0 0 0-.676-.455 2.156 2.156 0 0 0-.832-.156c-.303 0-.58.052-.832.156a1.718 1.718 0 0 0-.663.455 2.11 2.11 0 0 0-.429.767c-.104.312-.156.68-.156 1.105 0 .425.052.793.156 1.105.104.312.247.572.43.78.19.2.41.351.662.455.252.095.529.143.832.143Zm5.815.897h-1.144V7.253h1l.118 1.209h.026c.182-.381.455-.698.819-.949.364-.26.84-.39 1.43-.39.52 0 .944.126 1.274.377.338.243.563.611.676 1.105.19-.46.48-.819.87-1.079.4-.269.88-.403 1.444-.403.624 0 1.118.178 1.482.533.364.347.546.884.546 1.612V14h-1.157V9.411c0-.442-.109-.763-.325-.962-.217-.208-.512-.312-.884-.312a1.74 1.74 0 0 0-.663.117c-.191.07-.36.169-.507.299a2.56 2.56 0 0 0-.403.455 5.75 5.75 0 0 0-.338.546V14h-1.144V9.281c0-.433-.109-.732-.325-.897-.217-.165-.512-.247-.884-.247-.243 0-.46.03-.65.091-.191.06-.364.147-.52.26a2.045 2.045 0 0 0-.403.416c-.122.156-.234.33-.338.52V14Zm13.725.13c-.52 0-.97-.121-1.352-.364a2.648 2.648 0 0 1-.897-1.001v3.536H51.51V7.253h1.001l.117 1.313c.226-.442.529-.793.91-1.053.382-.26.854-.39 1.417-.39.39 0 .763.074 1.118.221.364.139.68.355.95.65.277.286.493.65.65 1.092.164.433.246.945.246 1.534 0 .598-.082 1.118-.247 1.56a3.26 3.26 0 0 1-.663 1.092 2.78 2.78 0 0 1-.962.65 3.185 3.185 0 0 1-1.144.208Zm-.169-1.027c.598 0 1.08-.204 1.443-.611.373-.416.56-1.04.56-1.872 0-.815-.187-1.43-.56-1.846-.364-.425-.845-.637-1.443-.637a2.22 2.22 0 0 0-.832.156c-.251.104-.472.26-.663.468-.182.2-.33.455-.442.767a3.457 3.457 0 0 0-.156 1.092c0 .416.052.78.156 1.092.113.312.26.572.442.78.19.208.412.364.663.468.26.095.538.143.832.143Zm5.715-8.424V14h-1.144V4.679h1.144Zm7.234 8.749c-.095.07-.212.143-.351.221a4.062 4.062 0 0 1-.507.234c-.2.07-.425.126-.676.169a4.185 4.185 0 0 1-.845.078c-1.135 0-1.998-.308-2.587-.923-.59-.615-.884-1.478-.884-2.587 0-.546.078-1.036.234-1.469.165-.433.39-.797.676-1.092a2.812 2.812 0 0 1 1.014-.689c.39-.165.815-.247 1.274-.247.485 0 .919.082 1.3.247.381.165.693.407.936.728.251.32.42.72.507 1.196.095.468.095 1.014 0 1.638h-4.758c.043.728.26 1.274.65 1.638.39.355.97.533 1.742.533.52 0 .966-.074 1.339-.221.373-.147.685-.308.936-.481v1.027Zm-2.678-5.291c-.494 0-.919.152-1.274.455-.355.303-.58.763-.676 1.378h3.627c.035-.624-.108-1.083-.43-1.378-.32-.303-.736-.455-1.247-.455Zm7.505 5.72a2.091 2.091 0 0 1-.534.195 2.944 2.944 0 0 1-.689.078 2.25 2.25 0 0 1-.845-.143 1.629 1.629 0 0 1-.558-.377 1.604 1.604 0 0 1-.326-.546 2.262 2.262 0 0 1-.09-.637V8.228h-.806v-.975h.805V5.836h1.145v1.417h1.963v.975h-1.963v4.056c0 .286.069.494.208.624.147.13.403.195.767.195.337 0 .645-.095.922-.286v1.04Zm6.827-.429a3.51 3.51 0 0 1-.35.221 4.062 4.062 0 0 1-.508.234c-.2.07-.424.126-.676.169a4.185 4.185 0 0 1-.845.078c-1.135 0-1.997-.308-2.587-.923-.59-.615-.884-1.478-.884-2.587 0-.546.078-1.036.234-1.469.165-.433.39-.797.676-1.092a2.812 2.812 0 0 1 1.014-.689c.39-.165.815-.247 1.274-.247.486 0 .919.082 1.3.247.382.165.694.407.936.728.252.32.42.72.507 1.196.096.468.096 1.014 0 1.638H74.67c.044.728.26 1.274.65 1.638.39.355.97.533 1.742.533.52 0 .967-.074 1.34-.221a4.69 4.69 0 0 0 .935-.481v1.027ZM76.66 8.137a1.9 1.9 0 0 0-1.274.455c-.355.303-.58.763-.676 1.378h3.627c.035-.624-.108-1.083-.429-1.378-.32-.303-.736-.455-1.248-.455Zm9.039 4.537a2.708 2.708 0 0 1-.871 1.066c-.373.26-.845.39-1.417.39-.408 0-.793-.07-1.157-.208a2.78 2.78 0 0 1-.962-.65 3.26 3.26 0 0 1-.663-1.092c-.165-.442-.247-.962-.247-1.56 0-.59.082-1.1.247-1.534.164-.442.385-.806.663-1.092a2.56 2.56 0 0 1 .962-.65 3.153 3.153 0 0 1 1.17-.221c.511 0 .953.108 1.326.325.372.208.671.507.897.897V4.679h1.144V14H85.79l-.091-1.326Zm-2.12.429c.295 0 .568-.048.82-.143.251-.104.468-.26.65-.468.19-.208.338-.468.442-.78.112-.312.169-.676.169-1.092 0-.416-.057-.78-.17-1.092a2.136 2.136 0 0 0-.441-.78 1.614 1.614 0 0 0-.65-.455 2.121 2.121 0 0 0-.82-.156c-.597 0-1.087.212-1.468.637-.373.416-.56 1.031-.56 1.846 0 .823.191 1.443.573 1.859.381.416.866.624 1.456.624Z"/>
    <defs>
        <clipPath id="clip0_3479_35434">
            <path fill="#fff" d="M6 4h12v12H6z"/>
        </clipPath>
    </defs>
</svg>
